packages/core/src/svgs/bzrx.svg

<svg width="24" height="24" viewBox="0 0 24 24" fill="none" xmlns="http://www.w3.org/2000/svg">
<g clip-path="url(#clip0_31_7647)">
<path d="M0 0H24V24H0V0Z" fill="url(#paint0_linear_31_7647)"/>
<path d="M5.14282 7.88592C5.14282 7.15847 5.4318 6.46082 5.94619 5.94643C6.46057 5.43205 7.15823 5.14307 7.88568 5.14307H9.42854V8.14307H10.7143V5.14307H16.1143C16.8417 5.14307 17.5394 5.43205 18.0537 5.94643C18.5681 6.46082 18.8571 7.15847 18.8571 7.88592V16.1145C18.8571 16.8419 18.5681 17.5396 18.0537 18.054C17.5394 18.5684 16.8417 18.8574 16.1143 18.8574H7.88568C7.15823 18.8574 6.46057 18.5684 5.94619 18.054C5.4318 17.5396 5.14282 16.8419 5.14282 16.1145V10.7145H12.9437C13.2188 10.7145 13.2857 10.8945 13.2857 11.1696V12.8574C13.2857 13.1329 13.1323 13.2859 12.8571 13.2859H11.1265C10.8514 13.2859 10.7143 13.0695 10.7143 12.7939V11.5716H9.42854V12.9906C9.42854 14.0244 10.095 14.5716 11.1265 14.5716H12.9437C13.9757 14.5716 14.5714 14.0244 14.5714 12.9906V11.1696C14.5714 10.1364 13.9753 9.42878 12.9437 9.42878H5.14282V7.88592Z" fill="white"/>
</g>
<defs>
<linearGradient id="paint0_linear_31_7647" x1="22.44" y1="22.44" x2="3.24" y2="3.24" gradientUnits="userSpaceOnUse">
<stop offset="0.159" stop-color="#003CDA"/>
<stop offset="1" stop-color="#33DFCC"/>
</linearGradient>
<clipPath id="clip0_31_7647">
<rect width="24" height="24" fill="white"/>
</clipPath>
</defs>
</svg>

<svg xmlns="http://www.w3.org/2000/svg" width="24" height="24" fill="none" viewBox="0 0 24 24"><g clip-path="url(#a)"><path fill="url(#b)" d="M0 0h24v24H0z"/><path fill="#fff" d="M5.143 7.886a2.743 2.743 0 0 1 2.743-2.743h1.543v3h1.285v-3h5.4a2.743 2.743 0 0 1 2.743 2.743v8.229a2.743 2.743 0 0 1-2.743 2.742H7.886a2.743 2.743 0 0 1-2.743-2.742v-5.4h7.8c.276 0 .343.18.343.455v1.687c0 .276-.154.429-.429.429h-1.73c-.276 0-.413-.216-.413-.492v-1.222H9.43v1.419c0 1.033.666 1.58 1.697 1.58h1.818c1.032 0 1.627-.547 1.627-1.58V11.17c0-1.034-.596-1.741-1.627-1.741H5.143z"/></g><defs><linearGradient id="b" x1="22.44" x2="3.24" y1="22.44" y2="3.24" gradientUnits="userSpaceOnUse"><stop offset=".159" stop-color="#003CDA"/><stop offset="1" stop-color="#33DFCC"/></linearGradient><clipPath id="a"><path fill="#fff" d="M0 0h24v24H0z"/></clipPath></defs></svg>
